build/images/svg/basket.svg

<svg  width="17" height="24" viewBox="0 0 17 24" fill="none" xmlns="http://www.w3.org/2000/svg">
  <path fill-rule="evenodd" clip-rule="evenodd" d="M8.96061 1.09091e-05C7.8648 0.00107728 6.81416 0.442131 6.0378 1.22729C5.26243 2.01245 4.82642 3.07781 4.82432 4.18885V6.229H1.45907C1.16173 6.229 0.921143 6.47296 0.921143 6.77446V20.7273C0.921143 22.5351 2.36681 24 4.14869 24H13.7724C15.5543 24 17 22.5351 17 20.7273V6.77446C17 6.62957 16.9432 6.49106 16.8424 6.38879C16.7415 6.28652 16.6049 6.22899 16.462 6.22899H13.0968V4.18884C13.0947 3.07769 12.6587 2.01233 11.8833 1.22728C11.1069 0.442121 10.0562 0.00106364 8.96049 0L8.96061 1.09091e-05ZM5.9001 4.18885C5.9001 2.4747 7.27013 1.08547 8.96061 1.08547C10.6511 1.08547 12.0211 2.4747 12.0211 4.18885V6.229H5.9001V4.18885ZM15.9243 7.31978V20.7271C15.9243 21.3056 15.6974 21.8606 15.2939 22.2697C14.8905 22.6788 14.3431 22.9089 13.7726 22.9089H4.14888C2.9606 22.9089 1.99718 21.932 1.99718 20.7271V7.31978H4.82451V10.2707C4.82451 10.5722 5.0651 10.8162 5.36243 10.8162C5.65872 10.8162 5.90036 10.5722 5.90036 10.2707V7.31978H12.0214V10.2707C12.0214 10.5722 12.2631 10.8162 12.5593 10.8162C12.8567 10.8162 13.0973 10.5722 13.0973 10.2707V7.31978H15.9243Z" fill="white"/>
</svg>

<svg width="17" height="24" fill="none" xmlns="http://www.w3.org/2000/svg"><path fill-rule="evenodd" clip-rule="evenodd" d="M8.96 0a4.115 4.115 0 00-2.922 1.227A4.227 4.227 0 004.824 4.19v2.04H1.46a.541.541 0 00-.538.545v13.953C.921 22.535 2.367 24 4.15 24h9.623C15.554 24 17 22.535 17 20.727V6.774a.55.55 0 00-.158-.385.534.534 0 00-.38-.16h-3.365v-2.04a4.226 4.226 0 00-1.214-2.962A4.115 4.115 0 008.96 0zM5.9 4.189c0-1.714 1.37-3.104 3.06-3.104 1.691 0 3.061 1.39 3.061 3.104v2.04h-6.12v-2.04zm10.024 3.13v13.408a2.2 2.2 0 01-.63 1.543c-.404.409-.95.639-1.521.639H4.149c-1.188 0-2.152-.977-2.152-2.182V7.32h2.828v2.95c0 .302.24.546.537.546a.542.542 0 00.538-.545V7.32h6.121v2.95c0 .302.242.546.538.546a.541.541 0 00.538-.545V7.32h2.827z" fill="#fff"/></svg>
